!!!!SEGMENT: Fsc2021-Ecce_Deus_salvator_meus.krn
!!!id: Fsc2021
!!!AGN: Motet
!!!SCT: Seay (1977)
!!!voices: 4
!!!COM: Costanzo Festa
!!!OTL: Ecce Deus salvator meus
**kern	**kern	**kern	**kern
*part4	*part3	*part2	*part1
*staff4	*staff3	*staff2	*staff1
*I"Bassus	*I"Tenor	*I"Altus	*I"Superius
*I'B	*I'T	*I'A	*I'S
*clefF4	*clefGv2	*clefGv2	*clefG2
*k[]	*k[]	*k[]	*k[]
*C:	*C:	*C:	*C:
*M2/1	*M2/1	*M2/1	*M2/1
*met(C|)	*met(C|)	*met(C|)	*met(C|)
!!section: Prima pars: Ecce Deus salvator meus
!!!OMD: Prima pars: Ecce Deus salvator meus
=1	=1	=1	=1
0r	0r	0r	0d
=2	=2	=2	=2
0r	0r	0A	1a
.	.	.	1a
=3	=3	=3	=3
0r	0r	1e	0g
.	.	1e	.
=4	=4	=4	=4
0r	0D	0d	1r
.	.	.	1a
=5	=5	=5	=5
0AA	1A	1r	1cc
.	1A	1e	1cc
=6	=6	=6	=6
1E	0G	1g	1.b
1E	.	1g	.
.	.	.	4a
.	.	.	4g
=7	=7	=7	=7
0D	1r	0f	2b
.	.	.	1a
.	1A	.	.
.	.	.	4g
.	.	.	4f
=8	=8	=8	=8
1r	1c	0e	[0g
1E	1c	.	.
=9	=9	=9	=9
1G	0B	2r	0g]
.	.	1d	.
1G	.	.	.
.	.	4c	.
.	.	4B	.
=10	=10	=10	=10
0F	1A	2d	0r
.	.	1c	.
.	2r	.	.
.	[2A	4B	.
.	.	4A	.
=11	=11	=11	=11
0E	2A]	1c	1r
.	4G	.	.
.	4F	.	.
.	1G	1B	1g
=12	=12	=12	=12
0r	1.A	1A	1.cc
.	.	2r	.
.	2E	2G	2b
=13	=13	=13	=13
1r	1F	1.c	1a
1C	1E	.	1g
.	.	2B	.
=14	=14	=14	=14
1.F	2r	1.A	1a
.	2A	.	.
.	1c	.	[1f
2E	.	2G	.
=15	=15	=15	=15
1D	2B	1F	1f]
.	1A	.	.
1C	.	2r	1e
.	2G	2c	.
=16	=16	=16	=16
1D	2F	1.f	1r
.	1A	.	.
[1BB-X	.	.	[1d
.	4G	2e	.
.	4F	.	.
=17	=17	=17	=17
1BB-]	2.G	1d	1d]
.	4F	.	.
1AA	1A	1c	1e
=18	=18	=18	=18
2r	1D	1d	1f
1A	.	.	.
.	[1E	[1B	[1e
4G	.	.	.
4F	.	.	.
=19	=19	=19	=19
1G	1E]	1B]	1e]
2.A	1r	2A	1e
.	.	4c	.
4G	.	4B	.
=20	=20	=20	=20
4F	0r	4A	2r
4E	.	4G	.
4D	.	1A	2a
4C	.	.	.
1BB	.	.	1b
.	.	2G#i	.
=21	=21	=21	=21
1AA	2r	1A	1cc
.	2A	.	.
1r	1B	1d	1b
=22	=22	=22	=22
1r	1c	1e	2g
.	.	.	2.a
1D	1A	1f	.
.	.	.	4g
.	.	.	4a
.	.	.	4b
=23	=23	=23	=23
1E	1G	2e	4cc
.	.	.	4b
.	.	1e	1cc
1F	2r	.	.
.	2A	2d	4b
.	.	.	4a
=24	=24	=24	=24
[0E	1B	[0e	1.g
.	1c	.	.
.	.	.	[2a
=25	=25	=25	=25
0E]	2.B	0e_	2a]
.	.	.	4g#i
.	4A	.	4f#i
.	1B	.	1g#i
=26	=26	=26	=26
0AA	1A	0e]	[0a
.	1r	.	.
=27	=27	=27	=27
1r	0A	0r	0a]
[1D	.	.	.
=28	=28	=28	=28
1D]	1B	0r	0r
1E	1c	.	.
=29	=29	=29	=29
1F	1.c	0r	1r
2.F	.	.	[1a
.	2B	.	.
4F	.	.	.
=30	=30	=30	=30
2F	2A	0d	1a]
2E	2G	.	.
1D	1F	.	1b
=31	=31	=31	=31
1AA	1E	1e	1cc
1r	1r	1f	[1cc
=32	=32	=32	=32
1r	0r	1.f	2cc]
.	.	.	2b
[1D	.	.	2a
.	.	2e	2g
=33	=33	=33	=33
1D]	0r	2d	4f
.	.	.	4g
.	.	2c	1a
1E	.	1B	.
.	.	.	2g#i
=34	=34	=34	=34
1F	0r	2A	0a
.	.	1c	.
[1F	.	.	.
.	.	2B	.
=35	=35	=35	=35
2F]	0A	2.A	2r
2E	.	.	2A
.	.	4G	.
2D	.	4F	1d
.	.	4G	.
2C	.	[2A	.
=36	=36	=36	=36
1BB	1B	2A]	1d
.	.	2G#i	.
[1AA	1c	2.A	1c
.	.	4B	.
=37	=37	=37	=37
1AA]	1.c	4c	1r
.	.	4d	.
.	.	4e	.
.	.	4f	.
1r	.	4g	1e
.	.	4e	.
.	2B	2g	.
=38	=38	=38	=38
0r	2A	2f	1a
.	2G	1e	.
.	1F	.	1a
.	.	2d	.
=39	=39	=39	=39
2r	1E	1e	2.g
2E	.	.	.
.	.	.	4f
1A	1r	2r	4e
.	.	.	8dL
.	.	.	8cJ
.	.	[2c	2f
=40	=40	=40	=40
1A	1r	2c]	2e
.	.	2A	2.f
1G	2r	1B	.
.	.	.	4e
.	2E	.	[2e
=41	=41	=41	=41
1F	1A	1c	2e]
.	.	.	4d
.	.	.	4c
1F	1A	2A	1d
.	.	2A	.
=42	=42	=42	=42
1E	1G	2B	2e
.	.	2e	2B
1r	1F	1a	2c
.	.	.	2d
=43	=43	=43	=43
2r	1F	1a	4A
.	.	.	4B
2A	.	.	4c
.	.	.	4d
2B	1E	1g	4e
.	.	.	4f
2c	.	.	4g
.	.	.	4a
=44	=44	=44	=44
1d	2r	1f	4b
.	.	.	4a
.	2D	.	2.dd
1D	2.d	1f	.
.	.	.	4cc
.	.	.	4b
.	4c	.	4a
=45	=45	=45	=45
0E	2B	[0e	2g
.	2A	.	1a
.	1B	.	.
.	.	.	2g#i
=46	=46	=46	=46
1.A	[0A	1e]	[0a
.	.	2r	.
2D	.	[2d	.
=47	=47	=47	=47
1D	0A]	2d]	0a]
.	.	2d	.
2r	.	2c	.
[2A	.	2A	.
=48	=48	=48	=48
2A]	2r	1c	0r
2A	1e	.	.
2G	.	2B	.
2E	2e	2G	.
=49	=49	=49	=49
1G	2d	1B	1r
.	2B	.	.
2F	1d	[1A	2r
2D	.	.	[2a
=50	=50	=50	=50
1F	2c	1A]	2a]
.	2A	.	2a
1E	2.c	[1e	2g
.	.	.	2e
.	8BL	.	.
.	8AJ	.	.
=51	=51	=51	=51
1E	2B	1e]	1g
.	2c	.	.
2r	1d	1r	2f
[2D	.	.	2d
=52	=52	=52	=52
2D]	2r	0r	1f
2D	1A	.	.
2C	.	.	[1e
2AA	2A	.	.
=53	=53	=53	=53
1C	2G	1r	1e]
.	2E	.	.
2BB-X	1G	2r	1d
2GG	.	[2d	.
=54	=54	=54	=54
2D	2F	2d]	2r
2D	2D	2d	1a
1A	1F	2c	.
.	.	2A	2a
=55	=55	=55	=55
0r	0E	1c	2g
.	.	.	2e
.	.	2B	1g
.	.	2G	.
=56	=56	=56	=56
2r	1D	1B-X	2f
1D	.	.	2d
.	2r	2.A	1f
2D	[2A	.	.
.	.	4B-i	.
=57	=57	=57	=57
2C	2A]	4c	0e
.	.	4A	.
2AA	2A	2.c	.
1C	2G	.	.
.	.	8BL	.
.	.	8AJ	.
.	2E	4G	.
.	.	4A	.
=58	=58	=58	=58
2BB-X	1G	4B-X	2.d
.	.	4G	.
2GG	.	2.B-i	.
.	.	.	4c
1BB-i	2F	.	4d
.	.	8AL	4e
.	.	8GJ	.
.	2D	4F	4f
.	.	4G	8eL
.	.	.	8dJ
=59	=59	=59	=59
0AA	1F	0A	2c
.	.	.	1d
.	1E	.	.
.	.	.	2c#i
=60	=60	=60	=60
00Dl	00Dl	00Al	00dl
==	==	==	==
*-	*-	*-	*-
!!!system-decoration: [*]
!!!RDF**kern: i = editorial accidental
!!!RDF**kern: l = terminal long
!!!ENC: Benjamin Ory
!!!END: 2021/7/19
!!!EED: Benjamin Ory
!!!EEV: 2021/07/19
!!!YEC: Copyright 2021 Benjamin Ory, All Rights Reserved
!!!ONB: Translated from MusicXML on 2021/07/19
